Newaita/actions/22/gnumeric-format-valign-justify.svg

<svg height="22" viewBox="0 0 22 22" width="22" xmlns="http://www.w3.org/2000/svg"><g fill="#424242"><path d="m2.046875 2.902344h17.738281c.125 0 .226563-.101563.226563-.230469v-.441406c0-.125-.101563-.226563-.226563-.226563h-17.738281c-.125 0-.226563.101563-.226563.226563v.441406c0 .128906.101563.230469.226563.230469zm0 0"/><path d="m2.046875 5.628906h17.738281c.125 0 .226563-.101562.226563-.226562v-.445313c0-.125-.101563-.226562-.226563-.226562h-17.738281c-.125 0-.226563.101562-.226563.226562v.445313c0 .125.101563.226562.226563.226562zm0 0"/><path d="m2.046875 10.164062h17.738281c.125 0 .226563-.101562.226563-.226562v-.441406c0-.125-.101563-.226563-.226563-.226563h-17.738281c-.125 0-.226563.101563-.226563.226563v.441406c0 .125.101563.226562.226563.226562zm0 0"/><path d="m2.046875 12.894531h17.738281c.125 0 .226563-.101562.226563-.226562v-.445313c0-.125-.101563-.226562-.226563-.226562h-17.738281c-.125 0-.226563.101562-.226563.226562v.445313c0 .125.101563.226562.226563.226562zm0 0"/><path d="m2.046875 17.453125h17.738281c.125 0 .226563-.101563.226563-.226563v-.441406c0-.128906-.101563-.230468-.226563-.230468h-17.738281c-.125 0-.226563.101562-.226563.230468v.441406c0 .125.101563.226563.226563.226563zm0 0"/><path d="m2.046875 20.183594h17.738281c.125 0 .226563-.101563.226563-.226563v-.445312c0-.125-.101563-.226563-.226563-.226563h-17.738281c-.125 0-.226563.101563-.226563.226563v.445312c0 .125.101563.226563.226563.226563zm0 0"/></g></svg>

<?xml version="1.0" encoding="UTF-8"?>
<svg xmlns="http://www.w3.org/2000/svg" xmlns:xlink="http://www.w3.org/1999/xlink" width="22px" height="22px" viewBox="0 0 22 22" version="1.1">
<g id="surface1">
<path style=" stroke:none;fill-rule:nonzero;fill:rgb(25.882354%,25.882354%,25.882354%);fill-opacity:1;" d="M 2.046875 2.902344 L 19.785156 2.902344 C 19.910156 2.902344 20.011719 2.800781 20.011719 2.671875 L 20.011719 2.230469 C 20.011719 2.105469 19.910156 2.003906 19.785156 2.003906 L 2.046875 2.003906 C 1.921875 2.003906 1.820312 2.105469 1.820312 2.230469 L 1.820312 2.671875 C 1.820312 2.800781 1.921875 2.902344 2.046875 2.902344 Z M 2.046875 2.902344 "/>
<path style=" stroke:none;fill-rule:nonzero;fill:rgb(25.882354%,25.882354%,25.882354%);fill-opacity:1;" d="M 2.046875 5.628906 L 19.785156 5.628906 C 19.910156 5.628906 20.011719 5.527344 20.011719 5.402344 L 20.011719 4.957031 C 20.011719 4.832031 19.910156 4.730469 19.785156 4.730469 L 2.046875 4.730469 C 1.921875 4.730469 1.820312 4.832031 1.820312 4.957031 L 1.820312 5.402344 C 1.820312 5.527344 1.921875 5.628906 2.046875 5.628906 Z M 2.046875 5.628906 "/>
<path style=" stroke:none;fill-rule:nonzero;fill:rgb(25.882354%,25.882354%,25.882354%);fill-opacity:1;" d="M 2.046875 10.164062 L 19.785156 10.164062 C 19.910156 10.164062 20.011719 10.0625 20.011719 9.9375 L 20.011719 9.496094 C 20.011719 9.371094 19.910156 9.269531 19.785156 9.269531 L 2.046875 9.269531 C 1.921875 9.269531 1.820312 9.371094 1.820312 9.496094 L 1.820312 9.9375 C 1.820312 10.0625 1.921875 10.164062 2.046875 10.164062 Z M 2.046875 10.164062 "/>
<path style=" stroke:none;fill-rule:nonzero;fill:rgb(25.882354%,25.882354%,25.882354%);fill-opacity:1;" d="M 2.046875 12.894531 L 19.785156 12.894531 C 19.910156 12.894531 20.011719 12.792969 20.011719 12.667969 L 20.011719 12.222656 C 20.011719 12.097656 19.910156 11.996094 19.785156 11.996094 L 2.046875 11.996094 C 1.921875 11.996094 1.820312 12.097656 1.820312 12.222656 L 1.820312 12.667969 C 1.820312 12.792969 1.921875 12.894531 2.046875 12.894531 Z M 2.046875 12.894531 "/>
<path style=" stroke:none;fill-rule:nonzero;fill:rgb(25.882354%,25.882354%,25.882354%);fill-opacity:1;" d="M 2.046875 17.453125 L 19.785156 17.453125 C 19.910156 17.453125 20.011719 17.351562 20.011719 17.226562 L 20.011719 16.785156 C 20.011719 16.65625 19.910156 16.554688 19.785156 16.554688 L 2.046875 16.554688 C 1.921875 16.554688 1.820312 16.65625 1.820312 16.785156 L 1.820312 17.226562 C 1.820312 17.351562 1.921875 17.453125 2.046875 17.453125 Z M 2.046875 17.453125 "/>
<path style=" stroke:none;fill-rule:nonzero;fill:rgb(25.882354%,25.882354%,25.882354%);fill-opacity:1;" d="M 2.046875 20.183594 L 19.785156 20.183594 C 19.910156 20.183594 20.011719 20.082031 20.011719 19.957031 L 20.011719 19.511719 C 20.011719 19.386719 19.910156 19.285156 19.785156 19.285156 L 2.046875 19.285156 C 1.921875 19.285156 1.820312 19.386719 1.820312 19.511719 L 1.820312 19.957031 C 1.820312 20.082031 1.921875 20.183594 2.046875 20.183594 Z M 2.046875 20.183594 "/>
</g>
</svg>
